src/assets/flower.svg

<svg xmlns="http://www.w3.org/2000/svg" width="80" height="80" viewBox="0 0 80 80" fill="none">
<path d="M39.999 -8.90933e-08C45.8213 0.00020756 50.5577 4.6387 50.7197 10.4219L50.7266 10.4219L50.7266 10.6904C50.7266 10.7028 50.7275 10.7152 50.7275 10.7275C50.7275 10.7394 50.7266 10.7518 50.7266 10.7637L50.7266 14.1016L53.3311 11.498L53.3369 11.5039C57.5409 7.53024 64.1693 7.59937 68.2861 11.7158C72.4026 15.8326 72.4717 22.4611 68.498 26.665L68.5029 26.6699L68.3125 26.8594C68.3034 26.8686 68.2943 26.8785 68.2852 26.8877L65.8994 29.2734L69.5791 29.2734L69.5791 29.2812C75.3617 29.444 79.9998 34.1791 80 40.001C80 45.823 75.3618 50.5579 69.5791 50.7207L69.5791 50.7285L65.8984 50.7285L68.5 53.3301L68.4941 53.3359C72.4673 57.54 72.3987 64.1676 68.2822 68.2842C64.1658 72.4006 57.5381 72.4699 53.334 68.4971L53.3281 68.502L50.7266 65.9004L50.7266 69.5791L50.7188 69.5791C50.556 75.3617 45.8209 79.9998 39.999 80C34.177 80 29.4421 75.3618 29.2793 69.5791L29.2715 69.5791L29.2715 65.9014L26.9443 68.2285C26.9262 68.247 26.909 68.2668 26.8906 68.2852C26.8721 68.3037 26.8517 68.3205 26.833 68.3389L26.6719 68.5L26.668 68.4961C22.464 72.4702 15.8357 72.4019 11.7188 68.2852C7.60186 64.1682 7.53262 57.539 11.5068 53.335L11.5 53.3281L14.0996 50.7285L10.4219 50.7285L10.4219 50.7207C4.63865 50.5586 0.000111771 45.8234 8.90922e-08 40.001C0.000206725 34.1787 4.6387 29.4423 10.4219 29.2803L10.4219 29.2734L10.6904 29.2734C10.7028 29.2734 10.7152 29.2725 10.7275 29.2725C10.7394 29.2725 10.7518 29.2734 10.7637 29.2734L14.0986 29.2734L11.4971 26.6719L11.5029 26.666C7.52819 22.462 7.59683 15.8329 11.7139 11.7158C15.831 7.59876 22.4601 7.531 26.6641 11.5059L26.6689 11.5L29.2715 14.1016L29.2715 10.4219L29.2793 10.4219C29.4414 4.63865 34.1766 0.000111593 39.999 -8.90933e-08Z" fill="#F75D45"/>
</svg>

<svg xmlns="http://www.w3.org/2000/svg" width="80" height="80" fill="none" viewBox="0 0 80 80"><path fill="#d060f8" d="M39.999 0c5.822 0 10.559 4.639 10.72 10.422h.008v3.68l2.604-2.604.006.006c4.204-3.974 10.832-3.905 14.95.212 4.116 4.117 4.185 10.745.211 14.949l.005.005-.19.19-.028.028-2.386 2.385h3.68v.008C75.362 29.444 80 34.18 80 40.001s-4.638 10.557-10.42 10.72v.008h-3.682L68.5 53.33l-.006.006c3.973 4.204 3.905 10.832-.212 14.948-4.116 4.117-10.744 4.186-14.948.213l-.006.005-2.601-2.602v3.68h-.008C50.556 75.361 45.82 80 39.999 80s-10.557-4.638-10.72-10.42h-.008V65.9l-2.327 2.328-.053.056q-.03.027-.058.054l-.161.161-.004-.004c-4.204 3.974-10.832 3.906-14.95-.21-4.116-4.118-4.185-10.747-.211-14.951l-.007-.007 2.6-2.6h-3.678v-.007C4.639 50.559 0 45.823 0 40s4.639-10.559 10.422-10.72v-.008h3.677l-2.602-2.601.006-.006c-3.975-4.204-3.906-10.833.21-14.95 4.118-4.117 10.747-4.185 14.951-.21l.005-.006 2.602 2.602v-3.68h.008C29.441 4.639 34.177 0 40 0"/></svg>
